assets/icons/24px/stroke/sparks-24px.svg

<svg width="24" height="24" viewBox="0 0 24 24" fill="none" xmlns="http://www.w3.org/2000/svg">
<path fill-rule="evenodd" clip-rule="evenodd" d="M5.5 3C6.05228 3 6.5 3.44772 6.5 4V5.5H8C8.55228 5.5 9 5.94772 9 6.5C9 7.05228 8.55228 7.5 8 7.5H6.5V9C6.5 9.55228 6.05228 10 5.5 10C4.94772 10 4.5 9.55228 4.5 9V7.5H3C2.44772 7.5 2 7.05228 2 6.5C2 5.94772 2.44772 5.5 3 5.5H4.5V4C4.5 3.44772 4.94772 3 5.5 3ZM13.9796 4.19208C14.3204 4.10021 14.6796 4.10021 15.0204 4.19208C15.4845 4.31716 15.7854 4.63657 15.9748 4.91717C16.1632 5.19638 16.3074 5.53414 16.4298 5.87942C16.6704 6.5586 16.9102 7.51785 17.2053 8.69836L17.2198 8.75601C17.2771 8.98522 17.3071 9.10237 17.3347 9.1851C17.3354 9.1871 17.336 9.18903 17.3366 9.19088C17.3384 9.19155 17.3403 9.19224 17.3422 9.19295C17.4237 9.22324 17.5394 9.25703 17.7662 9.32184L17.8237 9.33827C18.8342 9.62695 19.6678 9.86511 20.2635 10.102C20.5687 10.2234 20.8727 10.3674 21.1273 10.5545C21.3871 10.7455 21.6639 11.0322 21.7835 11.4524C21.8854 11.8104 21.8854 12.1897 21.7835 12.5477C21.6639 12.9679 21.3871 13.2547 21.1273 13.4457C20.8727 13.6327 20.5687 13.7768 20.2635 13.8982C19.6678 14.135 18.8342 14.3732 17.8238 14.6619L17.7662 14.6783C17.5394 14.7431 17.4237 14.7769 17.3422 14.8072C17.3403 14.8079 17.3384 14.8086 17.3366 14.8093C17.336 14.8111 17.3354 14.813 17.3347 14.815C17.3071 14.8978 17.2771 15.0149 17.2198 15.2441L17.2053 15.3018C16.9102 16.4823 16.6704 17.4415 16.4298 18.1207C16.3074 18.466 16.1632 18.8038 15.9748 19.083C15.7854 19.3636 15.4845 19.683 15.0204 19.8081C14.6796 19.8999 14.3204 19.8999 13.9796 19.8081C13.5155 19.683 13.2146 19.3636 13.0252 19.083C12.8368 18.8038 12.6926 18.466 12.5702 18.1207C12.3296 17.4415 12.0898 16.4823 11.7947 15.3018L11.7802 15.2441C11.7229 15.0149 11.6929 14.8978 11.6653 14.815C11.6646 14.813 11.664 14.8111 11.6634 14.8093C11.6616 14.8086 11.6597 14.8079 11.6578 14.8072C11.5763 14.7769 11.4606 14.7431 11.2338 14.6783L11.1762 14.6619C10.1658 14.3732 9.33216 14.135 8.73649 13.8982C8.43126 13.7768 8.12728 13.6327 7.87273 13.4457C7.61287 13.2547 7.33613 12.9679 7.21649 12.5477C7.11458 12.1897 7.11458 11.8104 7.21649 11.4524C7.33613 11.0322 7.61287 10.7455 7.87273 10.5545C8.12728 10.3674 8.43126 10.2234 8.73649 10.102C9.33217 9.86511 10.1658 9.62694 11.1763 9.33826L11.2338 9.32184C11.4606 9.25703 11.5763 9.22324 11.6578 9.19295C11.6597 9.19224 11.6616 9.19155 11.6634 9.19088C11.664 9.18903 11.6646 9.1871 11.6653 9.1851C11.6929 9.10237 11.7229 8.98522 11.7802 8.75601L11.7947 8.69836C12.0898 7.51785 12.3296 6.5586 12.5702 5.87942C12.6926 5.53414 12.8368 5.19638 13.0252 4.91717C13.2146 4.63657 13.5155 4.31716 13.9796 4.19208ZM14.4554 6.54745C14.2508 7.1248 14.0335 7.98937 13.7205 9.24108C13.7132 9.27023 13.7059 9.30028 13.6983 9.3311C13.6174 9.66129 13.515 10.0794 13.2544 10.4177C13.1629 10.5365 13.0582 10.6447 12.9425 10.7401C12.6131 11.0118 12.1991 11.128 11.8722 11.2198C11.8418 11.2283 11.812 11.2366 11.7832 11.2449C10.701 11.5541 9.96597 11.7654 9.47553 11.9604C9.44092 11.9742 9.40877 11.9874 9.37892 12.0001C9.40877 12.0127 9.44092 12.0259 9.47553 12.0397C9.96597 12.2347 10.701 12.446 11.7832 12.7553C11.812 12.7635 11.8418 12.7718 11.8722 12.7804C12.1991 12.8721 12.6131 12.9883 12.9425 13.26C13.0582 13.3555 13.1629 13.4636 13.2544 13.5825C13.515 13.9208 13.6174 14.3389 13.6983 14.669C13.7059 14.6999 13.7132 14.7299 13.7205 14.7591C14.0335 16.0108 14.2508 16.8753 14.4554 17.4527C14.4708 17.4963 14.4857 17.5368 14.5 17.5743C14.5143 17.5368 14.5292 17.4963 14.5446 17.4527C14.7492 16.8753 14.9665 16.0108 15.2795 14.7591C15.2868 14.7299 15.2941 14.6999 15.3017 14.669C15.3826 14.3389 15.485 13.9208 15.7456 13.5825C15.8371 13.4636 15.9418 13.3555 16.0575 13.26C16.3869 12.9883 16.8009 12.8721 17.1278 12.7804C17.1582 12.7718 17.188 12.7635 17.2168 12.7553C18.299 12.446 19.034 12.2347 19.5245 12.0397C19.5591 12.0259 19.5912 12.0127 19.6211 12.0001C19.5912 11.9874 19.5591 11.9742 19.5245 11.9604C19.034 11.7654 18.299 11.5541 17.2168 11.2449C17.188 11.2366 17.1582 11.2283 17.1278 11.2198C16.8009 11.128 16.3869 11.0118 16.0575 10.7401C15.9418 10.6447 15.8371 10.5365 15.7456 10.4177C15.485 10.0794 15.3826 9.66129 15.3017 9.3311C15.2941 9.30028 15.2868 9.27023 15.2795 9.24108C14.9665 7.98937 14.7492 7.1248 14.5446 6.54745C14.5292 6.50386 14.5143 6.46339 14.5 6.42584C14.4857 6.46339 14.4708 6.50386 14.4554 6.54745ZM14.6998 6.01315C14.6998 6.01319 14.6992 6.01389 14.698 6.01516C14.6992 6.01376 14.6998 6.01312 14.6998 6.01315ZM14.302 6.01516C14.3008 6.01389 14.3002 6.01319 14.3002 6.01315C14.3002 6.01312 14.3008 6.01376 14.302 6.01516ZM14.3002 17.987C14.3002 17.987 14.3008 17.9863 14.302 17.985C14.3008 17.9864 14.3003 17.987 14.3002 17.987ZM14.698 17.985C14.6992 17.9863 14.6998 17.987 14.6998 17.987C14.6997 17.987 14.6992 17.9864 14.698 17.985ZM6 15.5C6.55228 15.5 7 15.9477 7 16.5V17.5H8C8.55228 17.5 9 17.9477 9 18.5C9 19.0523 8.55228 19.5 8 19.5H7V20.5C7 21.0523 6.55228 21.5 6 21.5C5.44772 21.5 5 21.0523 5 20.5V19.5H4C3.44772 19.5 3 19.0523 3 18.5C3 17.9477 3.44772 17.5 4 17.5H5V16.5C5 15.9477 5.44772 15.5 6 15.5Z" fill="white"/>
</svg>

<svg width="24" height="24" fill="none" xmlns="http://www.w3.org/2000/svg"><path fill-rule="evenodd" clip-rule="evenodd" d="M5.5 3a1 1 0 0 1 1 1v1.5H8a1 1 0 0 1 0 2H6.5V9a1 1 0 0 1-2 0V7.5H3a1 1 0 0 1 0-2h1.5V4a1 1 0 0 1 1-1zm8.48 1.192a2 2 0 0 1 1.04 0c.465.125.765.445.955.725.188.28.332.617.455.962.24.68.48 1.639.775 2.82l.015.057c.057.23.087.346.115.43l.002.005.005.002c.082.03.197.064.424.129l.058.016c1.01.289 1.844.527 2.44.764.305.121.609.265.863.453.26.19.537.477.657.897a2 2 0 0 1 0 1.096c-.12.42-.397.707-.657.898a3.9 3.9 0 0 1-.863.452c-.596.237-1.43.475-2.44.764l-.058.016a6.626 6.626 0 0 0-.424.13l-.005.001-.002.006c-.028.083-.058.2-.115.43l-.015.057c-.295 1.18-.535 2.14-.775 2.819-.123.345-.267.683-.455.962-.19.28-.49.6-.955.725-.34.092-.7.092-1.04 0-.465-.125-.765-.444-.955-.725-.188-.28-.332-.617-.455-.962-.24-.68-.48-1.639-.775-2.82l-.015-.057a6.714 6.714 0 0 0-.115-.429l-.002-.006a6.626 6.626 0 0 0-.43-.131l-.057-.016c-1.01-.289-1.844-.527-2.44-.764a3.898 3.898 0 0 1-.863-.452c-.26-.191-.537-.478-.657-.898a2 2 0 0 1 0-1.096c.12-.42.397-.707.657-.897.254-.188.558-.332.863-.453.596-.237 1.43-.475 2.44-.764l.058-.016c.227-.065.342-.099.424-.129l.005-.002.002-.006c.028-.083.058-.2.115-.429l.015-.058c.295-1.18.535-2.14.775-2.819.123-.345.267-.683.455-.962.19-.28.49-.6.955-.725zm.475 2.355c-.204.578-.421 1.442-.735 2.694l-.022.09c-.08.33-.183.748-.444 1.087a1.999 1.999 0 0 1-.311.322c-.33.272-.744.388-1.07.48l-.09.025c-1.082.31-1.817.52-2.307.715a4.587 4.587 0 0 0-.097.04l.097.04c.49.195 1.225.406 2.307.715l.09.025c.326.092.74.208 1.07.48a2 2 0 0 1 .311.322c.261.339.363.757.444 1.087l.022.09c.313 1.252.53 2.116.735 2.694.016.043.03.084.045.121a5.23 5.23 0 0 0 .045-.121c.204-.578.421-1.442.735-2.694l.022-.09c.08-.33.183-.748.444-1.087a2 2 0 0 1 .312-.322c.329-.272.743-.388 1.07-.48l.089-.025c1.082-.309 1.817-.52 2.308-.715l.096-.04a4.722 4.722 0 0 0-.096-.04c-.491-.195-1.226-.406-2.308-.715l-.09-.025c-.326-.092-.74-.208-1.07-.48a1.999 1.999 0 0 1-.311-.322c-.261-.339-.363-.757-.444-1.087l-.022-.09c-.313-1.252-.53-2.116-.735-2.694a5.336 5.336 0 0 0-.045-.121l-.045.121zm.245-.534zm-.398.002zM14.3 17.987l.002-.002-.002.002zm.398-.002a.082.082 0 0 1 .002.002l-.002-.002zM6 15.5a1 1 0 0 1 1 1v1h1a1 1 0 1 1 0 2H7v1a1 1 0 1 1-2 0v-1H4a1 1 0 1 1 0-2h1v-1a1 1 0 0 1 1-1z" fill="#fff"/></svg>
